svg/white/vtc.svg

<svg xmlns="http://www.w3.org/2000/svg" width="32" height="32" viewBox="0 0 32 32">
  <path fill="#FFF" fill-rule="evenodd" d="M8.34553152,17.6166803 L12.3172318,22.9579325 L15.2603052,18.7470736 L12.192,14.656 L6.22694453,14.656 L8.34766813,17.6151491 L8.34553152,17.6166803 Z M6.44145554,16.672 L5.52714812,15.3962223 L4.464,16.672 L6.44145554,16.672 Z M12.9461397,23.8037051 L15.1494234,26.7667418 C15.4447001,27.163838 16.0059792,27.2463791 16.4030754,26.9511024 C16.4793642,26.8943748 16.5461389,26.8258674 16.6008939,26.7481505 L29.776,8.048 L29.7859327,7.87417714 C31.192745,10.255775 32,13.0336153 32,16 C32,24.836556 24.836556,32 16,32 C7.163444,32 0,24.836556 0,16 C0,7.163444 7.163444,0 16,0 C20.134404,0 23.902552,1.56812842 26.7421178,4.14205916 L17.1961975,17.722853 L12.9461397,23.8037051 Z"/>
</svg>

<svg xmlns="http://www.w3.org/2000/svg" width="32" height="32"><path fill="#FFF" fill-rule="evenodd" d="M8.346 17.617l3.971 5.34 2.943-4.21-3.068-4.091H6.227l2.12 2.96h-.001zm-1.905-.945l-.914-1.276-1.063 1.276h1.977zm6.505 7.132l2.203 2.963a.896.896 0 0 0 1.452-.019l13.175-18.7.01-.174A15.926 15.926 0 0 1 32 16c0 8.837-7.163 16-16 16S0 24.837 0 16 7.163 0 16 0c4.134 0 7.903 1.568 10.742 4.142l-9.546 13.58-4.25 6.082z"/></svg>
